app/src/assets/image/logos/galen.svg

<svg version="1" xmlns="http://www.w3.org/2000/svg" width="90.667" height="90.667" viewBox="0 0 68.000000 68.000000"><path fill="#fefefe" d="M0 34V0h68v68H0V34z"/><path fill="#dbe8f1" d="M10 57L0 46V22l11-11L22 0h11c7 0 11 0 11 1L27 18 11 34l11 10c6 6 11 10 11 10 1 0 6-4 11-10l11-10-5-6-6-6 6-5c3-3 5-5 6-5 0-1 3 2 6 4l5 5v12l1 12-12 11-11 12H21L10 57z"/><path fill="#96d3f8" d="M11 56L0 45V22l9-10C15 7 20 2 22 1c3-1 20-1 21-1 0 1-7 8-16 17L11 34l11 11 12 11 11-11 11-11-5-6c-3-3-5-6-5-6 0-1 9-11 10-11l6 6 6 5v23L56 56 45 68H22L11 56z"/><path fill="#94c6e5" d="M11 56L0 45V22c1 0 1 5 1 10L0 43l21-21L42 1l-9-1H23h20c0 1-7 8-16 17L11 34l11 11 12 11 11-11 11-11-5-6c-3-3-5-6-5-6 0-1 9-11 10-11l6 6 6 5-1 12v11-10l-1-10-21 20-21 21 10 1h11-11l-12 1-11-12zm44 0c10-10 12-11 12-10L56 57 45 67l10-11zM11 11c5-5 9-10 9-10 1 0-3 5-8 10C6 16 2 21 2 21c-1 0 3-5 9-10z"/><path fill="#86bbdd" d="M11 56C0 44 0 45 7 37l4-4 11 12 12 11-5 5c-3 3-6 6-7 6 0 0-6-5-11-11zm56-22V24l-6 5-5 5-5-6c-3-2-5-5-5-6s9-10 10-10 3 2 6 5l6 5-1 11v10-9zM30 0h4-4z"/><path fill="#73a8c9" d="M11 56C0 45 0 45 6 38l4-4 5 4c3 3 8 7 12 11l7 7-6 5-6 6c-1 0-6-5-11-11zm40-28c-3-3-5-6-5-6 0-1 9-10 10-10s3 2 6 5l5 5-5 6-6 6-5-6z"/><path fill="#5599c2" d="M11 56C5 51 1 46 1 45s2-4 5-6l4-5 12 11 12 11-5 5c-3 2-6 5-7 5s-6-4-11-10zm39-28l-5-6 6-5 5-6 5 5c3 3 6 5 6 6s-3 3-6 6l-5 6-6-6z"/><path fill="#448fbd" d="M11 56C0 45 0 44 7 38l4-4 11 11 11 11-4 5c-3 2-6 5-6 5-1 0-6-5-12-10zm40-29l-6-5 6-5 5-6 5 6 6 5-5 5c-3 3-5 6-5 6-1 0-3-3-6-6z"/><path fill="#3389bc" d="M11 56c-5-6-9-10-9-11s2-3 4-6l5-4 11 10 11 11-5 5c-3 2-6 5-6 5-1 0-5-5-11-10zm40-29l-6-5 5-5 6-4c1 0 3 2 6 4l4 5-5 5-5 6-5-6z"/></svg>

<?xml version="1.0" standalone="no"?>

<!DOCTYPE svg PUBLIC "-//W3C//DTD SVG 20010904//EN"

 "http://www.w3.org/TR/2001/REC-SVG-20010904/DTD/svg10.dtd">

<svg version="1.0" xmlns="http://www.w3.org/2000/svg"

 width="68.000000pt" height="68.000000pt" viewBox="0 0 68.000000 68.000000"

 preserveAspectRatio="xMidYMid meet">

<path fill="#fefefe" stroke="none" d="
M0 34

L0 0

L34 0

L68 0

L68 34

L68 68

L34 68

L0 68

L0 34

Z

"/>

<path fill="#dbe8f1" stroke="none" d="
M10 57

L0 46

L0 34

L0 22

L11 11

L22 0

L33 0

C40 0 44 0 44 1

C44 1 36 9 27 18

L11 34

L22 44

C28 50 33 54 33 54

C34 54 39 50 44 44

L55 34

L50 28

L44 22

L50 17

C53 14 55 12 56 12

C56 11 59 14 62 16

L67 21

L67 33

L68 45

L56 56

L45 68

L33 68

L21 68

L10 57

Z

"/>

<path fill="#96d3f8" stroke="none" d="
M11 56

L0 45

L0 34

L0 22

L9 12

C15 7 20 2 22 1

C25 0 42 0 43 0

C43 1 36 8 27 17

L11 34

L22 45

L34 56

L45 45

L56 34

L51 28

C48 25 46 22 46 22

C46 21 55 11 56 11

C57 12 59 14 62 17

L68 22

L68 34

L68 45

L56 56

L45 68

L33 68

L22 68

L11 56

Z

"/>

<path fill="#94c6e5" stroke="none" d="
M11 56

L0 45

L0 34

C0 28 0 22 0 22

C1 22 1 27 1 32

L0 43

L21 22

L42 1

L33 0

L23 0

L33 0

C38 0 42 0 43 0

C43 1 36 8 27 17

L11 34

L22 45

L34 56

L45 45

L56 34

L51 28

C48 25 46 22 46 22

C46 21 55 11 56 11

C57 12 59 14 62 17

L68 22

L67 34

L67 45

L67 35

L66 25

L45 45

L24 66

L34 67

L45 67

L34 67

L22 68

L11 56

Z

M55 56

C65 46 67 45 67 46

C67 46 62 51 56 57

L45 67

L55 56

Z

M11 11

C16 6 20 1 20 1

C21 1 17 6 12 11

C6 16 2 21 2 21

C1 21 5 16 11 11

Z

"/>

<path fill="#86bbdd" stroke="none" d="
M11 56

C0 44 0 45 7 37

L11 33

L22 45

L34 56

L29 61

C26 64 23 67 22 67

C22 67 16 62 11 56

Z

M67 34

L67 24

L61 29

L56 34

L51 28

C48 26 46 23 46 22

C46 21 55 12 56 12

C57 12 59 14 62 17

L68 22

L67 33

L67 43

L67 34

Z

M30 0

C33 0 36 0 38 0

C40 0 38 0 34 0

C30 0 28 0 30 0

Z

"/>

<path fill="#73a8c9" stroke="none" d="
M11 56

C0 45 0 45 6 38

L10 34

L15 38

C18 41 23 45 27 49

L34 56

L28 61

C25 64 22 67 22 67

C21 67 16 62 11 56

Z

M51 28

C48 25 46 22 46 22

C46 21 55 12 56 12

C57 12 59 14 62 17

L67 22

L62 28

L56 34

L51 28

Z

"/>

<path fill="#5599c2" stroke="none" d="
M11 56

C5 51 1 46 1 45

C1 44 3 41 6 39

L10 34

L22 45

L34 56

L29 61

C26 63 23 66 22 66

C21 66 16 62 11 56

Z

M50 28

L45 22

L51 17

L56 11

L61 16

C64 19 67 21 67 22

C67 23 64 25 61 28

L56 34

L50 28

Z

"/>

<path fill="#448fbd" stroke="none" d="
M11 56

C0 45 0 44 7 38

L11 34

L22 45

L33 56

L29 61

C26 63 23 66 23 66

C22 66 17 61 11 56

Z

M51 27

L45 22

L51 17

L56 11

L61 17

L67 22

L62 27

C59 30 57 33 57 33

C56 33 54 30 51 27

Z

"/>

<path fill="#3389bc" stroke="none" d="
M11 56

C6 50 2 46 2 45

C2 44 4 42 6 39

L11 35

L22 45

L33 56

L28 61

C25 63 22 66 22 66

C21 66 17 61 11 56

Z

M51 27

L45 22

L50 17

C53 15 56 13 56 13

C57 13 59 15 62 17

L66 22

L61 27

L56 33

L51 27

Z

"/>

</svg>
